dist/images/svg/offer.svg

<svg width="24" height="24" viewBox="0 0 24 24" fill="none" xmlns="http://www.w3.org/2000/svg">
<g clip-path="url(#clip0_51_656)">
<path opacity="0.4" d="M0.859875 13.0735C0.856955 11.1181 1.38617 9.19871 2.39081 7.52112C3.29645 9.22251 4.62732 10.6603 6.25379 11.6945C7.88026 12.7287 9.74687 13.3239 11.6718 13.4223C13.5967 13.5207 15.5142 13.1188 17.2377 12.2558C18.9611 11.3929 20.4316 10.0982 21.506 8.49799C22.1741 9.93066 22.5193 11.4927 22.5171 13.0735C22.5171 19.0538 17.6692 23.9016 11.6889 23.9016C5.70862 23.9016 0.859875 19.0538 0.859875 13.0735V13.0735Z" fill="#FF5050"/>
<path d="M12.0001 24C9.62703 23.9996 7.3073 23.2956 5.33425 21.977C3.36119 20.6584 1.8234 18.7844 0.915302 16.5919C0.00720033 14.3994 -0.230437 11.9869 0.232436 9.65939C0.695308 7.33186 1.83791 5.19383 3.51577 3.5156C5.46659 1.56482 8.02989 0.345615 10.7743 0.0631966C13.5186 -0.219222 16.2765 0.452383 18.5837 1.96498C18.7156 2.048 18.8295 2.15648 18.9189 2.28406C19.0083 2.41164 19.0714 2.55577 19.1045 2.70802C19.1375 2.86027 19.1399 3.01758 19.1114 3.17075C19.0829 3.32392 19.0242 3.46988 18.9387 3.60008C18.8531 3.73029 18.7425 3.84213 18.6132 3.92906C18.4839 4.016 18.3386 4.07628 18.1857 4.10639C18.0329 4.1365 17.8755 4.13582 17.7229 4.1044C17.5703 4.07299 17.4255 4.01146 17.297 3.92342C15.7241 2.88963 13.8823 2.34036 12.0001 2.34373C6.67702 2.34373 2.34389 6.67545 2.34389 12C2.34389 17.3245 6.67561 21.6562 12.0001 21.6562C17.3247 21.6562 21.6564 17.3245 21.6564 12C21.6573 11.0591 21.5207 10.1231 21.2509 9.2217C21.2067 9.07427 21.1919 8.91957 21.2075 8.76644C21.223 8.61331 21.2686 8.46474 21.3416 8.32921C21.489 8.05551 21.739 7.85157 22.0368 7.76224C22.3345 7.67292 22.6556 7.70553 22.9293 7.85291C23.203 8.00029 23.4069 8.25036 23.4962 8.5481C24.0338 10.3403 24.1449 12.2333 23.8208 14.0761C23.4967 15.9189 22.7462 17.6604 21.6293 19.1616C20.5125 20.6628 19.0601 21.8821 17.3882 22.7221C15.7163 23.5622 13.8712 23.9998 12.0001 24V24Z" fill="#0D0D0D"/>
<path d="M10.2438 17.7337C10.027 17.7343 9.81234 17.6918 9.61214 17.6088C9.41194 17.5257 9.23022 17.4038 9.07752 17.25L4.89064 13.064C4.78181 12.9552 4.69548 12.826 4.63658 12.6838C4.57768 12.5416 4.54736 12.3892 4.54736 12.2353C4.54736 11.9244 4.67084 11.6263 4.89064 11.4065C5.11044 11.1867 5.40855 11.0633 5.71939 11.0633C6.03023 11.0633 6.32834 11.1867 6.54814 11.4065L10.2438 15.1022L17.4541 7.88997C17.6739 7.67017 17.972 7.54669 18.2828 7.54669C18.5937 7.54669 18.8918 7.67017 19.1116 7.88997C19.3314 8.10977 19.4549 8.40788 19.4549 8.71872C19.4549 9.02956 19.3314 9.32767 19.1116 9.54747L11.4105 17.25C11.2576 17.4037 11.0758 17.5256 10.8755 17.6086C10.6753 17.6917 10.4606 17.7342 10.2438 17.7337V17.7337Z" fill="#0D0D0D"/>
</g>
<defs>
<clipPath id="clip0_51_656">
<rect width="24" height="24" fill="white"/>
</clipPath>
</defs>
</svg>

<svg width="24" height="24" fill="none" xmlns="http://www.w3.org/2000/svg"><g clip-path="url(#clip0_51_656)"><path opacity=".4" d="M.86 13.073a10.776 10.776 0 011.53-5.552 11.16 11.16 0 0019.116.977 10.79 10.79 0 011.011 4.575c0 5.98-4.848 10.829-10.828 10.829-5.98 0-10.83-4.848-10.83-10.829z" fill="#FF5050"/><path d="M12 24a12 12 0 116.584-22.035 1.17 1.17 0 11-1.287 1.958A9.613 9.613 0 0012 2.343c-5.323 0-9.656 4.332-9.656 9.657S6.676 21.656 12 21.656c5.325 0 9.656-4.331 9.656-9.656a9.647 9.647 0 00-.405-2.778 1.172 1.172 0 012.245-.674A12.003 12.003 0 0112 24z" fill="#0D0D0D"/><path d="M10.244 17.734a1.637 1.637 0 01-1.166-.484L4.89 13.064a1.172 1.172 0 111.657-1.658l3.696 3.696 7.21-7.212a1.172 1.172 0 111.658 1.657L11.41 17.25a1.64 1.64 0 01-1.167.484z" fill="#0D0D0D"/></g><defs><clipPath id="clip0_51_656"><path fill="#fff" d="M0 0h24v24H0z"/></clipPath></defs></svg>
